X:19135
T:Xota de Cangas (MQ 070)
T:Jota de Cangas (MQ 070)
R:Xota
C:Tradicional
S:Música Tradicional Asturiana, (C) Tello & Tito. Asturies, 2001.
S:http://pagina.de/MusTradAst <telloytito@asturies.org>
N:Jota originaria de la zona de Cangas del Narcea.
N:Es junto con el "son de arriba" el baile más popular de la zona.
O:Cangas del Narcea
A:Asturies
Z:Manolo Quirós 070
M:3/8
L:1/8
Q:3/8=72
K:C
C
|E2 D|CDE|F2 E|D2 D|D2 C|B,CD|E2 D|C2 C|
E2 D|CDE|F2 E|D2 D|D2 C|B,CD|E2 D|C2 C/D/|
|EFF|EDC|B,CD|E2 C/D/|EFF|EDC|B,CD|C2 C/D/|
EFF|EDC|B,CD|E2 C/D/|EFF|EEG|FED|C3|C2 G|
|: G2 F|EFE|DCC|F2 E|DEF|G3-|G2 G|
G2 F|EFE|DCE|D2 C|B,CD|C3|[1 C2 G :|[2 C2 E/F/|
|GAG|FEG|FEF|G2 E/F/|GAG|FEG|FED|C2 E/F/|
GAG|FEG|FEF|G2 E/F/|GAG|FEG|FED|C3-|C3|


